!!!COM: Haydn, Franz Joseph
!!!OTL: String Quartet in E-flat major
!!!OPS: Opus 1
!!!ONM: No. 2
!!!OMD: Menuetto I
!!!OMV: 2
!!!SCT: H III:2
!!!SCA: Thematisch-bibliographisches Werkevererzeichnis (A. van Hoboken)
!!!YOR: Bremner Edition, 1772
!!!ENC: Frances Bennion
!!!CDT: 1732/3/31/-1809/5/31/
!!!CNT: Oesterreich
!!!YEC: Copyright (c) 1994, 2000 Center for Computer Assisted Research in the Humanities
!!!YEM: Rights to all derivative editions reserved.
!!!YEM: Refer to licensing agreement for further details.
!!!YEN: United States of America
**kern	**kern	**kern	**kern
*k[b-e-a-]	*k[b-e-a-]	*k[b-e-a-]	*k[b-e-a-]
*E-:	*E-:	*E-:	*E-:
*clefF4	*clefC3	*clefF	*clefF
*M3/4	*M3/4	*M3/4	*M3/4
2.r	2.r	4r	4b-
.	.	4g	4ee-
.	.	4e-	4gg
=2	=2	=2	=2
2.r	2.r	2f	4gg
.	.	.	8.aa-
.	.	.	16gg
.	.	4a-	8.ff
.	.	.	16ee-
=3	=3	=3	=3
2.r	2.r	2b-	4dd
.	.	.	4ff
.	.	4d	4bb-
=4	=4	=4	=4
2.r	2.r	2e-	4aa-
.	.	.	8.gg
.	.	.	16ff
.	.	4g	8.ee-
.	.	.	16dd
=5	=5	=5	=5
2.r	2.r	4a-	4cc
.	.	4g	4ccc
.	.	4f	4ccc
=6	=6	=6	=6
2.r	2.r	4b-	2dd
.	.	4a-	.
.	.	4g	8ee-
.	.	.	16dd
.	.	.	16cc
=7	=7	=7	=7
2D	2.b-	2f	4b-
.	.	.	12aa-
.	.	.	12ff
.	.	.	12aa-
4E-	.	4g	4gg
=8	=8	=8	=8
2D	2.b-	2f	4b-
.	.	.	12aa-
.	.	.	12ff
.	.	.	12aa-
4E-	.	4g	4gg
=9	=9	=9	=9
4G	4g	4e-	4bb-
4A-	4a-	8.cc	8.aa-
.	.	16b-	16gg
4A-	4a-	8.a-	8.ff
.	.	16g	16ee-
=10	=10	=10	=10
4B-	4b-	2f	2dd
4F	4f	.	.
4BB-	4B-	4r	4r
=11	=11	=11	=11
4r	4r	4f	2.r
4d	4dd	4b-	.
4B-	4b-	4dd	.
=12	=12	=12	=12
4c	4cc	4dd	2.r
4C	4c	8.ee-	.
.	.	16dd	.
4r	4r	8.cc	.
.	.	16b-	.
=13	=13	=13	=13
4F	4f	4a	4ccc
4F	4f	4a	4ccc
4F	4f	4a	4ccc
=14	=14	=14	=14
4B-	4b-	4a	4ccc
4BB-	4B-	8.b-	8.ddd
.	.	16a	16ccc
4r	4r	8.g	8.bb-
.	.	16f	16aa
=15	=15	=15	=15
4B-	4b-	4e-	4gg
4B-	4b-	4e-	4gg
4B-	4b-	12g	12bb-
.	.	12f	12aa
.	.	12e-	12gg
=16	=16	=16	=16
2BB-	2B-	8e-	8gg
.	.	8d	8ff
.	.	4.d	4.ff
4D	4d	.	.
.	.	8B-	8bb-
=17	=17	=17	=17
4E-	4e-	8e-	8gg
.	.	16d	16ff
.	.	16c	16ee-
4F	4f	4B-	4dd
4FF	4F	4A	4cc
=18	=18	=18	=18
4BB-	4B-	2B-	2b-
4B-	4b-	.	.
4A-	4a-	4r	4r
=19	=19	=19	=19
4G	4e-	4B-	2.r
4GG	4e-	4B-	.
4GG	8e-	4B-	.
.	8g	.	.
=20	=20	=20	=20
4AA-	8g	4c	2.r
.	8f	.	.
4AA-	2f	4c	.
4AA-	.	4c	.
=21	=21	=21	=21
4BB-	4e-	4g	2.r
4BB-	4e-	4g	.
4BB-	4e-	8g	.
.	.	8b-	.
=22	=22	=22	=22
4C	4e-	8b-	2.r
.	.	8a-	.
4C	4e-	2a-	.
4C	4e-	.	.
=23	=23	=23	=23
4D	4d	4ff	4aa-
4D	4d	4ff	4aa-
4BB-	4B-	8ff	8aa-
.	.	8gg	8bb-
=24	=24	=24	=24
2E-	2e-	8ff	8aa-
.	.	8ee-	8gg
.	.	4ee-	4gg
4A-	4a-	4e-	12ccc
.	.	.	12bb-
.	.	.	12aa-
=25	=25	=25	=25
2G	2g	2e-	4gg
.	.	.	4eee-
4D	4d	4b-	12ff
.	.	.	12gg
.	.	.	12aa-
=26	=26	=26	=26
2E-	2e-	2b-	8aa-
.	.	.	8gg
.	.	.	8ff
.	.	.	8ee-
4r	4r	4r	8dd
.	.	.	8cc
=27	=27	=27	=27
4E-	4e-	4g	4b-
4B-	4b-	4e-	4g
4BB-	4B-	4d	4f
=28	=28	=28	=28
4E-	4e-	2e-	2e-
4BB-	4B-	.	.
4EE-	4E-	4r	4r
=29	=29	=29	=29
2BB-	2B-	8b-	2b- 2d
.	.	8b-	.
.	.	8b-	.
.	.	8b-	.
4d	4dd	8b-	4bb-
.	.	8b-	.
=30	=30	=30	=30
4e-	4ee-	8b-	4gg
.	.	8b-	.
4d	4dd	8b-	4ff
.	.	8b-	.
4c	4cc	8b-	4ee-
.	.	8b-	.
=31	=31	=31	=31
4B-	4b-	8b-	4.dd
.	.	8b-	.
4BB-	4B-	8b-	.
.	.	8b-	8ee-
4C	4c	8b-	8.ee-
.	.	8b-	.
.	.	.	32dd
.	.	.	32ee-
=32	=32	=32	=32
4D	4d	8b-	4ff
.	.	8b-	.
2r	2r	8b-	16aa
.	.	.	8.bb-
.	.	8b-	.
.	.	8b-	16aa
.	.	.	8.bb-
.	.	8b-	.
=33	=33	=33	=33
2BB-	2B-	8b-	2b- 2d
.	.	8b-	.
.	.	8b-	.
.	.	8b-	.
4d	4dd	8b-	4bb-
.	.	8b-	.
=34	=34	=34	=34
4e-	4ee-	8b-	4gg
.	.	8b-	.
4d	4dd	8b-	4ff
.	.	8b-	.
4c	4cc	8b-	4ee-
.	.	8b-	.
=35	=35	=35	=35
4B-	4b-	8b-	4.dd
.	.	8b-	.
4BB-	4B-	8b-	.
.	.	8b-	8ee-
4C	4c	8b-	8.ee-
.	.	8b-	.
.	.	.	32dd
.	.	.	32ee-
=36	=36	=36	=36
4D	4d	8b-	4ff
.	.	8b-	.
4r	4r	8b-	4r
.	.	8b-	.
4D	4d	8b-	4bb-
.	.	8b-	.
=37	=37	=37	=37
4E-	4e-	8b-	8ff#
.	.	8b-	8gg
4r	4r	8b-	4.gg
.	.	8b-	.
4e-	4ee-	8b-	.
.	.	8b-	8aa
=38	=38	=38	=38
4d	4dd	8b-	8bb-
.	.	8b-	8ff
4r	4r	8b-	8ddd
.	.	8b-	8aa
4D	4f	8b-	8bb-
.	.	8b-	8ff
=39	=39	=39	=39
4E-	4g	8b-	4ee-
.	.	8b-	.
4F	4f	8b-	4dd
.	.	8b-	.
4FF	4F	8a	4cc
.	.	8a	.
=40	=40	=40	=40
4BB-	4B-	2b-	2b-
4D	4d	.	.
4BB- 4F	4B- 4f	4r	4r
=41	=41	=41	=41
2FF	8f	2A 2f	2A 2f
.	8f	.	.
.	8f	.	.
.	8f	.	.
4r	8f	4a	4ff
.	8f	.	.
=42	=42	=42	=42
2.r	8f	4b-	4dd
.	8f	.	.
.	8f	4a	4cc
.	8f	.	.
.	8f	4g	4b-
.	8f	.	.
=43	=43	=43	=43
2.r	8f	4.f	4.a
.	8f	.	.
.	8f	.	.
.	8f	8g	8b-
.	8f	8.g	8.b-
.	8f	.	.
.	.	32f	32a
.	.	32g	32b-
=44	=44	=44	=44
2.r	8f	4a	4cc
.	8f	.	.
.	8f	2r	16ee
.	.	.	8.ff
.	8f	.	.
.	8f	.	16ee
.	.	.	8.ff
.	8f	.	.
=45	=45	=45	=45
2FF	8f	2A	2f
.	8f	.	.
.	8f	.	.
.	8f	.	.
4r	8f	12a	12cc
.	.	12b-	12dd
.	8f	.	.
.	.	12cc	12ee-
=46	=46	=46	=46
2FF	8f	2B-	2d
.	8f	.	.
.	8f	.	.
.	8f	.	.
4r	8f	12b-	12dd
.	.	12cc	12ee-
.	8f	.	.
.	.	12dd	12ff
=47	=47	=47	=47
2.r	8f	4dd	4ff
.	8f	.	.
.	8f	4r	12bb-
.	.	.	12aa
.	8f	.	.
.	.	.	12gg
.	8f	12dd	12ff
.	.	12cc	12ee-
.	8f	.	.
.	.	12b-	12dd
=48	=48	=48	=48
4r	8f	4a	4cc
.	8f	.	.
8F	8f	2r	2r
8E-	8e-	.	.
8D	8d	.	.
8C	8c	.	.
=49	=49	=49	=49
2BB-	4B-	8b-	2b- 2d
.	.	8b-	.
.	4r	8b-	.
.	.	8b-	.
4d	4dd	8b-	4bb-
.	.	8b-	.
=50	=50	=50	=50
4e-	4ee-	8b-	4gg
.	.	8b-	.
4d	4dd	8b-	4ff
.	.	8b-	.
4c	4cc	8b-	4ee-
.	.	8b-	.
=51	=51	=51	=51
4B-	4b-	8b-	4.dd
.	.	8b-	.
4BB-	4B-	8b-	.
.	.	8b-	8ee-
4C	4c	8b-	8.ee-
.	.	8b-	.
.	.	.	32dd
.	.	.	32ee-
=52	=52	=52	=52
4D	4d	8b-	4ff
.	.	8b-	.
2r	2r	8b-	16aa
.	.	.	8.bb-
.	.	8b-	.
.	.	8b-	16aa
.	.	.	8.bb-
.	.	8b-	.
=53	=53	=53	=53
4BB-	4B-	8b-	2b- 2d
.	.	8b-	.
4C	4c	8b-	.
.	.	8b-	.
4D	4d	8b-	4aa-
.	.	8b-	.
=54	=54	=54	=54
4E-	4e-	8b-	8aa-
.	.	8b-	8gg
2r	2r	8b-	2gg
.	.	8b-	.
.	.	8b-	.
.	.	8b-	.
=55	=55	=55	=55
4e-	4ee-	8b-	8ff#
.	.	8b-	8gg
4e-	4ee-	8b-	4.gg
.	.	8b-	.
4e-	4ee-	8b-	.
.	.	8b-	8aa
=56	=56	=56	=56
4d	4dd	8b-	8bb-
.	.	8b-	8ff
4r	4r	8b-	8ddd
.	.	8b-	8aa
4D	4f	8b-	8bb-
.	.	8b-	8ff
=57	=57	=57	=57
4E-	4g	8b-	4ee-
.	.	8b-	.
4F	4f	8b-	4dd
.	.	8b-	.
4FF	4F	8a	4cc
.	.	8a	.
=58	=58	=58	=58
4BB-	4B-	2b-	2b-
4D	4d	.	.
4BB-	4B-	4r	4r
==	==	==	==
*-	*-	*-	*-
!!!RWG1: This file contains only pitch and duration data.
!!!RWG2: Transposing instruments are not transposed.
!!!RWG3: Spines may have incompatible meters.
!!!RWG4: Durations of rests and tied notes may be interpreted.
!!!RWG: Key is interpreted using the Humdrum key tool.
!!!GTL: 10 Divertimentos
!!!AFT: stage1
!!!END: 1997/04/15
!!!KEY: 4024561077
!!!EMD: Converted from MuseData to Humdrum Dec 16, 2000, by Andreas Kornstaedt using muse2kern.
!!!EMD: Manual editing by Craig Sapp, Nov 2001
